packages/ffe-icons/icons/filled/md/target.svg

<svg xmlns="http://www.w3.org/2000/svg" height="24" viewBox="0 -960 960 960" width="24"><path d="M480.067-100.001q-78.836 0-148.204-29.92-69.369-29.92-120.682-81.21-51.314-51.291-81.247-120.629-29.933-69.337-29.933-148.173t29.92-148.204q29.92-69.369 81.21-120.682 51.291-51.314 120.629-81.247 69.337-29.933 148.173-29.933t148.204 29.92q69.369 29.92 120.682 81.21 51.314 51.291 81.247 120.629 29.933 69.337 29.933 148.173t-29.92 148.204q-29.92 69.369-81.21 120.682-51.291 51.314-120.629 81.247-69.337 29.933-148.173 29.933ZM480-160q134 0 227-93t93-227q0-134-93-227t-227-93q-134 0-227 93t-93 227q0 134 93 227t227 93Zm.091-100.001q-91.629 0-155.859-64.14-64.231-64.14-64.231-155.768 0-91.629 64.14-155.859 64.14-64.231 155.768-64.231 91.629 0 155.859 64.14 64.231 64.14 64.231 155.768 0 91.629-64.14 155.859-64.14 64.231-155.768 64.231ZM480-320q66 0 113-47t47-113q0-66-47-113t-113-47q-66 0-113 47t-47 113q0 66 47 113t113 47Zm0-100.001q-24.538 0-42.268-17.731-17.731-17.73-17.731-42.268t17.731-42.268q17.73-17.731 42.268-17.731t42.268 17.731q17.731 17.73 17.731 42.268t-17.731 42.268q-17.73 17.731-42.268 17.731Z"/></svg>

<svg xmlns="http://www.w3.org/2000/svg" height="24" viewBox="0 -960 960 960" width="24"><path d="M480.07-100q-78.84 0-148.21-29.92t-120.68-81.21q-51.31-51.29-81.25-120.63Q100-401.1 100-479.93q0-78.84 29.92-148.21t81.21-120.68q51.29-51.31 120.63-81.25Q401.1-860 479.93-860q78.84 0 148.21 29.92t120.68 81.21q51.31 51.29 81.25 120.63Q860-558.9 860-480.07q0 78.84-29.92 148.21t-81.21 120.68q-51.29 51.31-120.63 81.25Q558.9-100 480.07-100Zm-.07-60q134 0 227-93t93-227q0-134-93-227t-227-93q-134 0-227 93t-93 227q0 134 93 227t227 93Zm.09-100q-91.63 0-155.86-64.14Q260-388.28 260-479.91q0-91.63 64.14-155.86Q388.28-700 479.91-700q91.63 0 155.86 64.14Q700-571.72 700-480.09q0 91.63-64.14 155.86Q571.72-260 480.09-260Zm-.09-60q66 0 113-47t47-113q0-66-47-113t-113-47q-66 0-113 47t-47 113q0 66 47 113t113 47Zm0-100q-24.54 0-42.27-17.73Q420-455.46 420-480q0-24.54 17.73-42.27Q455.46-540 480-540q24.54 0 42.27 17.73Q540-504.54 540-480q0 24.54-17.73 42.27Q504.54-420 480-420Z"/></svg>
